X:1
T:An appeal to the bear
T:An appeal to the bear 
T:Lakota arr. Clark Kimberling https://imslp.org/wiki/User:Clark_Kimberling/Historical_Notes_9
T:Clark Kimberling
C:Lakota
Z:Clark Kimberling
L:1/8
Q:1/4=126
M:2/4
K:G
V:1 treble+8 nm="D Tin Whistle" snm="D Tin Wh."
V:1
 .e.e .e.B | (B4 | B2) z2 | .e.e .e.B | (B4 | B2) z2 | (cB) .c.B | A4 |{/.B} .G.G (GE) | E4 | %10
 (cB) .c.B | A4 |{/.B} .G.G ((GE)) | E4 || .e.e (eg) | B2 e2 | e4 | .Pe.e (eg) | B2 e2 | e2 g2 | %20
 (cB) .c.B | A2 A2 |{/.B} .G.G (((GE))) | (E4 | E2) z3/2 e/ ||[K:C] .e.e .e.B | !-(!e2 !-)!.a2 | %27
 .a.a .a.e | !-(!e2 !-)!.ae | (^fe) .g.e | d2 d2 |{/.e} .c.c (cA) |[K:G] (((AA/4))B/4c/4d/4 .e2) | %33
 (fe) .f.e | d2 d2 |{/.e} .c.c (cA) | A4 | .a.a (ac') | (ea) a>a | .a.a (ac') | e2 a2 | %41
 (Pfe) .f.e | d2 d2 |{/.e} .c.c ((cA)) | A2 e2 | (fe) .f.e | d2 d2 |{/.e} .c.c (cA) | %48
 !~(!A2 !~)!.a2 |] %49

